X: 705
T: Jin lanfang
%%abc-version 2.0
%%abcx-abcm2ps-target-version 5.9.1 (29 Sep 2008)
%%abc-creator hum2abc beta
%%abcx-conversion-date 2013/10/02 07:52:30
%%abc-edited-by Helmut Schaffrath
%%humdrum-veritas 2301599713
%%humdrum-veritas-data 2791519011
%%continueall 1
%%barnumbers 0
L: 1/8
M: 2/4
K: F
G2G c [I:setbarnb 1]| 
c Ac2 | 
G2G c | 
A G F D/ F/ | 
G2G A | 
G2G A | 
A2d2 | 
c> d c A | 
G2G c | 
A G F D/ F/ | 
G2G A | 
C C C D | 
D c A G | 
F3D | 
F4 | 
A2A F | 
G A G F | 
D A,C2- | 
C2D D | 
G2G z | 
A2c2 | 
d> f d c | 
c2A2 | 
G4 |]  



